X:1
T: Glen Lyon
P:Sureene version
R:Reel
Q: 232
K:D
M:4/4
L:1/8
|:F|DD dF A3=c|BG AF G1/2F1/2E1/2D1/2 =CE|DD dF A3g|fd ef d3F|
DD dF A3=c|BG AF G1/2F1/2E1/2D1/2 =CE|DD dF A3g|fd ef d3e|
fd gf e=c ce|fd ge d3g|fd gf e=c ce|af ge d3e|
fd gf e=c ce|fd ge fd ge|fd gf e=c ce|f1/4g1/4a3/2 ef d3:|
